X: 165
T: Kua meimei
L: 1/8
M: 2/4
K: G
d2d e [I:setbarnb 1]| 
d2c B | 
A2A B | 
d4 | 
B3B/ A/ | 
G4 | 
d d/ B/ A B | 
D E G B | 
F ED2- | 
D2z2 |]

@@@ Tune index: 9039
